; generated by QIDISlicer 1.1.7 on 2024-12-03 at 11:16:28 UTC


;
;

;
;
; 

; external perimeters extrusion width = 0.42mm
; perimeters extrusion width = 0.45mm
; infill extrusion width = 0.45mm
; solid infill extrusion width = 0.42mm
; top infill extrusion width = 0.42mm
; first layer extrusion width = 0.50mm

; external perimeters extrusion width = 0.42mm
; perimeters extrusion width = 0.45mm
; infill extrusion width = 0.45mm
; solid infill extrusion width = 0.42mm
; top infill extrusion width = 0.42mm
; first layer extrusion width = 0.50mm

;TYPE:Custom
EXCLUDE_OBJECT_DEFINE NAME=cube_(Instance_1) CENTER=130.345,90.810 POLYGON=[[142.595,99.810],[118.095,99.810],[118.095,81.810],[142.595,81.810]]
EXCLUDE_OBJECT_DEFINE NAME=cube_(Instance_2) CENTER=130.345,66.620 POLYGON=[[142.595,75.620],[118.095,75.620],[118.095,57.620],[142.595,57.620]]
EXCLUDE_OBJECT_DEFINE NAME=cube_(Instance_3) CENTER=130.345,115.000 POLYGON=[[142.595,124.000],[118.095,124.000],[118.095,106.000],[142.595,106.000]]
EXCLUDE_OBJECT_DEFINE NAME=cube_(Instance_4) CENTER=99.655,139.190 POLYGON=[[111.905,148.190],[87.405,148.190],[87.405,130.190],[111.905,130.190]]
EXCLUDE_OBJECT_DEFINE NAME=cube_(Instance_5) CENTER=130.345,139.190 POLYGON=[[142.595,148.190],[118.095,148.190],[118.095,130.190],[142.595,130.190]]
EXCLUDE_OBJECT_DEFINE NAME=cube_(Instance_6) CENTER=68.965,139.190 POLYGON=[[81.215,148.190],[56.715,148.190],[56.715,130.190],[81.215,130.190]]
EXCLUDE_OBJECT_DEFINE NAME=cube_(Instance_7) CENTER=68.965,90.810 POLYGON=[[81.215,99.810],[56.715,99.810],[56.715,81.810],[81.215,81.810]]
EXCLUDE_OBJECT_DEFINE NAME=cube_(Instance_8) CENTER=99.655,163.380 POLYGON=[[111.905,172.380],[87.405,172.380],[87.405,154.380],[111.905,154.380]]
EXCLUDE_OBJECT_DEFINE NAME=cube_(Instance_9) CENTER=99.655,90.810 POLYGON=[[111.905,99.810],[87.405,99.810],[87.405,81.810],[111.905,81.810]]
EXCLUDE_OBJECT_DEFINE NAME=cube_(Instance_10) CENTER=99.655,115.000 POLYGON=[[111.905,124.000],[87.405,124.000],[87.405,106.000],[111.905,106.000]]
EXCLUDE_OBJECT_DEFINE NAME=cube_(Instance_11) CENTER=161.035,66.620 POLYGON=[[173.285,75.620],[148.785,75.620],[148.785,57.620],[173.285,57.620]]
EXCLUDE_OBJECT_DEFINE NAME=cube_(Instance_12) CENTER=130.345,163.380 POLYGON=[[142.595,172.380],[118.095,172.380],[118.095,154.380],[142.595,154.380]]
EXCLUDE_OBJECT_DEFINE NAME=cube_(Instance_13) CENTER=68.965,163.380 POLYGON=[[81.215,172.380],[56.715,172.380],[56.715,154.380],[81.215,154.380]]
EXCLUDE_OBJECT_DEFINE NAME=cube_(Instance_14) CENTER=68.965,115.000 POLYGON=[[81.215,124.000],[56.715,124.000],[56.715,106.000],[81.215,106.000]]
EXCLUDE_OBJECT_DEFINE NAME=cube_(Instance_15) CENTER=68.965,66.620 POLYGON=[[81.215,75.620],[56.715,75.620],[56.715,57.620],[81.215,57.620]]
EXCLUDE_OBJECT_DEFINE NAME=cube_(Instance_16) CENTER=161.035,115.000 POLYGON=[[173.285,124.000],[148.785,124.000],[148.785,106.000],[173.285,106.000]]
EXCLUDE_OBJECT_DEFINE NAME=cube_(Instance_17) CENTER=161.035,90.810 POLYGON=[[173.285,99.810],[148.785,99.810],[148.785,81.810],[173.285,81.810]]
EXCLUDE_OBJECT_DEFINE NAME=cube_(Instance_18) CENTER=99.655,66.620 POLYGON=[[111.905,75.620],[87.405,75.620],[87.405,57.620],[111.905,57.620]]
EXCLUDE_OBJECT_DEFINE NAME=cube_(Instance_19) CENTER=161.035,139.190 POLYGON=[[173.285,148.190],[148.785,148.190],[148.785,130.190],[173.285,130.190]]
EXCLUDE_OBJECT_DEFINE NAME=cube_(Instance_20) CENTER=161.035,163.380 POLYGON=[[173.285,172.380],[148.785,172.380],[148.785,154.380],[173.285,154.380]]
M73 P0 R23
PRINT_START BED=80 HOTEND=250 CHAMBER=0
M83
M140 S80
M104 S250
G4 P3000



G0 X5 Y2 Z5 F6000
G0 Z0.2 F600
G1 X240 Y2 E9.4 F3000
G0 Z0.3 F600
G1 X5 Y2 E9.4 F3000
G1 Z1 F600
G0 Z0.2 F600
G1 Z1 F600
G21 ; set units to millimeters
G90 ; use absolute coordinates
M83 ; use relative distances for extrusion
; Filament gcode
M900 K0.06 T0.03
M221 S91
M107
M106 P2 S0 ; disable fan
M106 P3 S76
;LAYER_CHANGE
;Z:0.2
;HEIGHT:0.2
G10 ; retract
M204 S10000 ; adjust acceleration
G1 Z.2 F600 ; travel to first layer point
EXCLUDE_OBJECT_START NAME='cube_(Instance_11)'
M900 K0.1
G1 X149.185 Y58.02 F30000 ; travel to first layer point
G11 ; unretract
M204 S500 ; adjust acceleration
;TYPE:External perimeter
;WIDTH:0.499999
G1 F3000
G1 X172.885 Y58.02 E.90075 ; perimeter
G1 X172.885 Y66.62 E.32685 ; perimeter
G1 X172.885 Y75.22 E.32685 ; perimeter
G1 X149.185 Y75.22 E.90075 ; perimeter
G1 X149.185 Y58.08 E.65143 ; perimeter
M204 S10000 ; adjust acceleration
G10 ; retract
G1 X171.774 Y58.203 F30000 ; move to first infill point
G11 ; unretract
M204 S500 ; adjust acceleration
;TYPE:Solid infill
;WIDTH:0.502084
G1 F6000
G1 X172.496 Y58.926 E.03901 ; infill
G1 X172.496 Y59.575 E.02478 ; infill
G1 X171.33 Y58.409 E.06296 ; infill
G1 X170.681 Y58.409 E.02478 ; infill
G1 X172.496 Y60.224 E.098 ; infill
G1 X172.496 Y60.874 E.02482 ; infill
G1 X170.031 Y58.409 E.1331 ; infill
G1 X169.382 Y58.409 E.02478 ; infill
G1 X172.496 Y61.523 E.16814 ; infill
G1 X172.496 Y62.172 E.02478 ; infill
G1 X168.733 Y58.409 E.20318 ; infill
G1 X168.083 Y58.409 E.02482 ; infill
G1 X172.496 Y62.822 E.23828 ; infill
G1 X172.496 Y63.471 E.02478 ; infill
M73 P1 R23
G1 X167.434 Y58.409 E.27332 ; infill
G1 X166.785 Y58.409 E.02478 ; infill
G1 X172.496 Y64.12 E.30836 ; infill
G1 X172.496 Y64.77 E.02482 ; infill
G1 X166.135 Y58.409 E.34346 ; infill
G1 X165.486 Y58.409 E.02478 ; infill
G1 X172.496 Y65.419 E.3785 ; infill
G1 X172.496 Y66.068 E.02478 ; infill
G1 X164.837 Y58.409 E.41354 ; infill
G1 X164.187 Y58.409 E.02482 ; infill
G1 X172.496 Y66.718 E.44864 ; infill
G1 X172.496 Y67.367 E.02478 ; infill
G1 X163.538 Y58.409 E.48368 ; infill
G1 X162.888 Y58.409 E.02482 ; infill
G1 X172.496 Y68.017 E.51878 ; infill
G1 X172.496 Y68.666 E.02478 ; infill
G1 X162.239 Y58.409 E.55382 ; infill
G1 X161.59 Y58.409 E.02478 ; infill
G1 X172.496 Y69.315 E.58886 ; infill
G1 X172.496 Y69.965 E.02482 ; infill
G1 X160.94 Y58.409 E.62396 ; infill
G1 X160.291 Y58.409 E.02478 ; infill
G1 X172.496 Y70.614 E.659 ; infill
G1 X172.496 Y71.263 E.02478 ; infill
G1 X159.642 Y58.409 E.69404 ; infill
G1 X158.992 Y58.409 E.02482 ; infill
G1 X172.496 Y71.913 E.72914 ; infill
G1 X172.496 Y72.562 E.02478 ; infill
G1 X158.343 Y58.409 E.76418 ; infill
G1 X157.694 Y58.409 E.02478 ; infill
G1 X172.496 Y73.211 E.79922 ; infill
G1 X172.496 Y73.861 E.02482 ; infill
G1 X157.044 Y58.409 E.83432 ; infill
G1 X156.395 Y58.409 E.02478 ; infill
G1 X172.496 Y74.51 E.86936 ; infill
G1 X172.496 Y74.831 E.01226 ; infill
G1 X172.169 Y74.831 E.01248 ; infill
G1 X155.746 Y58.409 E.88672 ; infill
G1 X155.096 Y58.409 E.02482 ; infill
G1 X171.519 Y74.831 E.88672 ; infill
G1 X170.87 Y74.831 E.02478 ; infill
G1 X154.447 Y58.409 E.88672 ; infill
G1 X153.797 Y58.409 E.02482 ; infill
G1 X170.22 Y74.831 E.88672 ; infill
G1 X169.571 Y74.831 E.02478 ; infill
G1 X153.148 Y58.409 E.88672 ; infill
G1 X152.499 Y58.409 E.02478 ; infill
G1 X168.922 Y74.831 E.88672 ; infill
G1 X168.272 Y74.831 E.02482 ; infill
G1 X151.849 Y58.409 E.88672 ; infill
G1 X151.2 Y58.409 E.02478 ; infill
G1 X167.623 Y74.831 E.88672 ; infill
G1 X166.974 Y74.831 E.02478 ; infill
G1 X150.551 Y58.409 E.88672 ; infill
G1 X149.901 Y58.409 E.02482 ; infill
G1 X166.324 Y74.831 E.88672 ; infill
G1 X165.675 Y74.831 E.02478 ; infill
G1 X149.574 Y58.73 E.86936 ; infill
G1 X149.574 Y59.379 E.02478 ; infill
G1 X165.026 Y74.831 E.83432 ; infill
G1 X164.376 Y74.831 E.02482 ; infill
M73 P1 R22
G1 X149.574 Y60.029 E.79922 ; infill
G1 X149.574 Y60.678 E.02478 ; infill
G1 X163.727 Y74.831 E.76418 ; infill
G1 X163.078 Y74.831 E.02478 ; infill
G1 X149.574 Y61.327 E.72914 ; infill
G1 X149.574 Y61.977 E.02482 ; infill
G1 X162.428 Y74.831 E.69404 ; infill
G1 X161.779 Y74.831 E.02478 ; infill
G1 X149.574 Y62.626 E.659 ; infill
G1 X149.574 Y63.276 E.02482 ; infill
G1 X161.129 Y74.831 E.6239 ; infill
G1 X160.48 Y74.831 E.02478 ; infill
G1 X149.574 Y63.925 E.58886 ; infill
G1 X149.574 Y64.574 E.02478 ; infill
M73 P2 R22
G1 X159.831 Y74.831 E.55382 ; infill
G1 X159.181 Y74.831 E.02482 ; infill
G1 X149.574 Y65.224 E.51872 ; infill
G1 X149.574 Y65.873 E.02478 ; infill
G1 X158.532 Y74.831 E.48368 ; infill
G1 X157.883 Y74.831 E.02478 ; infill
G1 X149.574 Y66.522 E.44864 ; infill
G1 X149.574 Y67.172 E.02482 ; infill
G1 X157.233 Y74.831 E.41354 ; infill
G1 X156.584 Y74.831 E.02478 ; infill
G1 X149.574 Y67.821 E.3785 ; infill
G1 X149.574 Y68.47 E.02478 ; infill
G1 X155.935 Y74.831 E.34346 ; infill
G1 X155.285 Y74.831 E.02482 ; infill
G1 X149.574 Y69.12 E.30836 ; infill
G1 X149.574 Y69.769 E.02478 ; infill
G1 X154.636 Y74.831 E.27332 ; infill
G1 X153.987 Y74.831 E.02478 ; infill
G1 X149.574 Y70.418 E.23828 ; infill
G1 X149.574 Y71.068 E.02482 ; infill
G1 X153.337 Y74.831 E.20318 ; infill
G1 X152.688 Y74.831 E.02478 ; infill
G1 X149.574 Y71.717 E.16814 ; infill
G1 X149.574 Y72.367 E.02482 ; infill
G1 X152.038 Y74.831 E.13304 ; infill
G1 X151.389 Y74.831 E.02478 ; infill
G1 X149.574 Y73.016 E.098 ; infill
G1 X149.574 Y73.665 E.02478 ; infill
G1 X150.74 Y74.831 E.06296 ; infill
G1 X150.09 Y74.831 E.02482 ; infill
G1 X149.368 Y74.109 E.03898 ; infill
M204 S10000 ; adjust acceleration
G10 ; retract
G1 X149.368 Y74.109 F30000 ; move to first perimeter point
EXCLUDE_OBJECT_END NAME='cube_(Instance_11)'
EXCLUDE_OBJECT_START NAME='cube_(Instance_17)'
M900 K0.13
G1 X149.185 Y82.21 ; move to first perimeter point
G11 ; unretract
M204 S500 ; adjust acceleration
;TYPE:External perimeter
;WIDTH:0.499999
G1 F3000
G1 X172.885 Y82.21 E.90075 ; perimeter
G1 X172.885 Y90.81 E.32685 ; perimeter
G1 X172.885 Y99.41 E.32685 ; perimeter
G1 X149.185 Y99.41 E.90075 ; perimeter
G1 X149.185 Y82.27 E.65143 ; perimeter
M204 S10000 ; adjust acceleration
G10 ; retract
G1 X171.774 Y82.393 F30000 ; move to first infill point
G11 ; unretract
M204 S500 ; adjust acceleration
;TYPE:Solid infill
;WIDTH:0.502084
G1 F6000
G1 X172.496 Y83.116 E.03901 ; infill
G1 X172.496 Y83.765 E.02478 ; infill
G1 X171.33 Y82.599 E.06296 ; infill
G1 X170.681 Y82.599 E.02478 ; infill
G1 X172.496 Y84.414 E.098 ; infill
G1 X172.496 Y85.064 E.02482 ; infill
G1 X170.031 Y82.599 E.1331 ; infill
G1 X169.382 Y82.599 E.02478 ; infill
G1 X172.496 Y85.713 E.16814 ; infill
G1 X172.496 Y86.362 E.02478 ; infill
G1 X168.733 Y82.599 E.20318 ; infill
G1 X168.083 Y82.599 E.02482 ; infill
G1 X172.496 Y87.012 E.23828 ; infill
G1 X172.496 Y87.661 E.02478 ; infill
G1 X167.434 Y82.599 E.27332 ; infill
G1 X166.785 Y82.599 E.02478 ; infill
G1 X172.496 Y88.31 E.30836 ; infill
G1 X172.496 Y88.96 E.02482 ; infill
G1 X166.135 Y82.599 E.34346 ; infill
G1 X165.486 Y82.599 E.02478 ; infill
G1 X172.496 Y89.609 E.3785 ; infill
G1 X172.496 Y90.258 E.02478 ; infill
G1 X164.837 Y82.599 E.41354 ; infill
G1 X164.187 Y82.599 E.02482 ; infill
G1 X172.496 Y90.908 E.44864 ; infill
G1 X172.496 Y91.557 E.02478 ; infill
G1 X163.538 Y82.599 E.48368 ; infill
G1 X162.888 Y82.599 E.02482 ; infill
G1 X172.496 Y92.207 E.51878 ; infill
G1 X172.496 Y92.856 E.02478 ; infill
G1 X162.239 Y82.599 E.55382 ; infill
G1 X161.59 Y82.599 E.02478 ; infill
G1 X172.496 Y93.505 E.58886 ; infill
G1 X172.496 Y94.155 E.02482 ; infill
G1 X160.94 Y82.599 E.62396 ; infill
G1 X160.291 Y82.599 E.02478 ; infill
G1 X172.496 Y94.804 E.659 ; infill
G1 X172.496 Y95.453 E.02478 ; infill
G1 X159.642 Y82.599 E.69404 ; infill
G1 X158.992 Y82.599 E.02482 ; infill
G1 X172.496 Y96.103 E.72914 ; infill
G1 X172.496 Y96.752 E.02478 ; infill
G1 X158.343 Y82.599 E.76418 ; infill
G1 X157.694 Y82.599 E.02478 ; infill
G1 X172.496 Y97.401 E.79922 ; infill
G1 X172.496 Y98.051 E.02482 ; infill
G1 X157.044 Y82.599 E.83432 ; infill
G1 X156.395 Y82.599 E.02478 ; infill
G1 X172.496 Y98.7 E.86936 ; infill
G1 X172.496 Y99.021 E.01226 ; infill
G1 X172.169 Y99.021 E.01248 ; infill
G1 X155.746 Y82.599 E.88672 ; infill
G1 X155.096 Y82.599 E.02482 ; infill
G1 X171.519 Y99.021 E.88672 ; infill
G1 X170.87 Y99.021 E.02478 ; infill
M73 P3 R22
G1 X154.447 Y82.599 E.88672 ; infill
G1 X153.797 Y82.599 E.02482 ; infill
G1 X170.22 Y99.021 E.88672 ; infill
G1 X169.571 Y99.021 E.02478 ; infill
G1 X153.148 Y82.599 E.88672 ; infill
G1 X152.499 Y82.599 E.02478 ; infill
G1 X168.922 Y99.021 E.88672 ; infill
G1 X168.272 Y99.021 E.02482 ; infill
G1 X151.849 Y82.599 E.88672 ; infill
G1 X151.2 Y82.599 E.02478 ; infill
G1 X167.623 Y99.021 E.88672 ; infill
G1 X166.974 Y99.021 E.02478 ; infill
G1 X150.551 Y82.599 E.88672 ; infill
G1 X149.901 Y82.599 E.02482 ; infill
G1 X166.324 Y99.021 E.88672 ; infill
G1 X165.675 Y99.021 E.02478 ; infill
G1 X149.574 Y82.92 E.86936 ; infill
G1 X149.574 Y83.569 E.02478 ; infill
G1 X165.026 Y99.021 E.83432 ; infill
G1 X164.376 Y99.021 E.02482 ; infill
G1 X149.574 Y84.219 E.79922 ; infill
G1 X149.574 Y84.868 E.02478 ; infill
G1 X163.727 Y99.021 E.76418 ; infill
G1 X163.078 Y99.021 E.02478 ; infill
G1 X149.574 Y85.517 E.72914 ; infill
G1 X149.574 Y86.167 E.02482 ; infill
G1 X162.428 Y99.021 E.69404 ; infill
G1 X161.779 Y99.021 E.02478 ; infill
G1 X149.574 Y86.816 E.659 ; infill
G1 X149.574 Y87.466 E.02482 ; infill
G1 X161.129 Y99.021 E.6239 ; infill
G1 X160.48 Y99.021 E.02478 ; infill
G1 X149.574 Y88.115 E.58886 ; infill
G1 X149.574 Y88.764 E.02478 ; infill
G1 X159.831 Y99.021 E.55382 ; infill
G1 X159.181 Y99.021 E.02482 ; infill
G1 X149.574 Y89.414 E.51872 ; infill
G1 X149.574 Y90.063 E.02478 ; infill
G1 X158.532 Y99.021 E.48368 ; infill
G1 X157.883 Y99.021 E.02478 ; infill
G1 X149.574 Y90.712 E.44864 ; infill
G1 X149.574 Y91.362 E.02482 ; infill
G1 X157.233 Y99.021 E.41354 ; infill
G1 X156.584 Y99.021 E.02478 ; infill
G1 X149.574 Y92.011 E.3785 ; infill
G1 X149.574 Y92.66 E.02478 ; infill
G1 X155.935 Y99.021 E.34346 ; infill
G1 X155.285 Y99.021 E.02482 ; infill
G1 X149.574 Y93.31 E.30836 ; infill
G1 X149.574 Y93.959 E.02478 ; infill
G1 X154.636 Y99.021 E.27332 ; infill
G1 X153.987 Y99.021 E.02478 ; infill
G1 X149.574 Y94.608 E.23828 ; infill
G1 X149.574 Y95.258 E.02482 ; infill
G1 X153.337 Y99.021 E.20318 ; infill
G1 X152.688 Y99.021 E.02478 ; infill
G1 X149.574 Y95.907 E.16814 ; infill
G1 X149.574 Y96.557 E.02482 ; infill
G1 X152.038 Y99.021 E.13304 ; infill
G1 X151.389 Y99.021 E.02478 ; infill
G1 X149.574 Y97.206 E.098 ; infill
G1 X149.574 Y97.855 E.02478 ; infill
G1 X150.74 Y99.021 E.06296 ; infill
G1 X150.09 Y99.021 E.02482 ; infill
G1 X149.368 Y98.299 E.03898 ; infill
M204 S10000 ; adjust acceleration
G10 ; retract
G1 X149.368 Y98.299 F30000 ; move to first perimeter point
EXCLUDE_OBJECT_END NAME='cube_(Instance_17)'
EXCLUDE_OBJECT_START NAME='cube_(Instance_16)'
M900 K0.125
G1 X149.185 Y106.4 ; move to first perimeter point
G11 ; unretract
M204 S500 ; adjust acceleration
;TYPE:External perimeter
;WIDTH:0.499999
G1 F3000
G1 X172.885 Y106.4 E.90075 ; perimeter
G1 X172.885 Y115 E.32685 ; perimeter
G1 X172.885 Y123.6 E.32685 ; perimeter
G1 X149.185 Y123.6 E.90075 ; perimeter
G1 X149.185 Y106.46 E.65143 ; perimeter
M204 S10000 ; adjust acceleration
G10 ; retract
G1 X171.774 Y106.583 F30000 ; move to first infill point
G11 ; unretract
M204 S500 ; adjust acceleration
;TYPE:Solid infill
;WIDTH:0.502084
G1 F6000
G1 X172.496 Y107.306 E.03901 ; infill
G1 X172.496 Y107.955 E.02478 ; infill
G1 X171.33 Y106.789 E.06296 ; infill
G1 X170.681 Y106.789 E.02478 ; infill
G1 X172.496 Y108.604 E.098 ; infill
G1 X172.496 Y109.254 E.02482 ; infill
G1 X170.031 Y106.789 E.1331 ; infill
G1 X169.382 Y106.789 E.02478 ; infill
G1 X172.496 Y109.903 E.16814 ; infill
G1 X172.496 Y110.552 E.02478 ; infill
G1 X168.733 Y106.789 E.20318 ; infill
G1 X168.083 Y106.789 E.02482 ; infill
G1 X172.496 Y111.202 E.23828 ; infill
G1 X172.496 Y111.851 E.02478 ; infill
G1 X167.434 Y106.789 E.27332 ; infill
M73 P4 R22
G1 X166.785 Y106.789 E.02478 ; infill
G1 X172.496 Y112.5 E.30836 ; infill
G1 X172.496 Y113.15 E.02482 ; infill
G1 X166.135 Y106.789 E.34346 ; infill
G1 X165.486 Y106.789 E.02478 ; infill
G1 X172.496 Y113.799 E.3785 ; infill
G1 X172.496 Y114.448 E.02478 ; infill
G1 X164.837 Y106.789 E.41354 ; infill
G1 X164.187 Y106.789 E.02482 ; infill
G1 X172.496 Y115.098 E.44864 ; infill
G1 X172.496 Y115.747 E.02478 ; infill
